src/svgs/restricted-area.svg

<svg xmlns="http://www.w3.org/2000/svg" viewBox="0 0 24 24" width="512" height="512" aria-labelledby="jlrestricted-area-desc jlrestricted-area-title"><title id="jlrestricted-area-title">Restricted Area Icon</title><desc id="jlrestricted-area-desc">A picture depicting a restricted area blocked by a barrier or a fence.</desc><path d="M4 15v7H2v-7zm16 7h2v-7h-2zM4 2H2v2h2zm16 0v2h2V2zm2 3v9H2V5zm-5.667 2l-1.667 5h2l1.666-5zm-5 0l-1.667 5h3l1.666-5zm-4 0l-1.667 5h2l1.667-5zM4 7v4l1.333-4zm16 5V8l-1.334 4z"/></svg>

<svg xmlns="http://www.w3.org/2000/svg" viewBox="0 0 24 24"><path d="M4,15v7H2V15Zm16,7h2V15H20ZM4,2H2V4H4ZM20,2V4h2V2Zm2,3v9H2V5ZM16.333,7l-1.667,5h2l1.666-5Zm-5,0L9.666,12h3l1.666-5Zm-4,0L5.666,12h2L9.333,7ZM4,7v4L5.333,7Zm16,5V8l-1.334,4Z"/></svg>
